dist/icons/absolute-items/2.svg

<svg width="60" height="60" viewBox="0 0 60 60" fill="none" xmlns="http://www.w3.org/2000/svg">
<path d="M40.5467 42.0924C44.9775 42.0924 48.5775 38.4924 48.5775 33.9693C48.5775 32.2155 49.316 30.4616 50.516 29.2616C53.6544 26.1231 53.6544 20.9539 50.516 17.8155C49.2237 16.5231 48.5775 14.8616 48.5775 13.1078C48.5775 8.677 44.9775 4.98469 40.4544 4.98469C38.7006 4.98469 36.9467 4.24623 35.7467 3.04623C32.6083 -0.0922324 27.439 -0.0922324 24.3006 3.04623C23.0083 4.33854 21.3467 4.98469 19.5929 4.98469C15.1621 4.98469 11.4698 8.58469 11.4698 13.1078C11.4698 14.8616 10.7313 16.6155 9.53135 17.8155C7.96212 19.3847 7.13135 21.3232 7.13135 23.5385C7.13135 25.6616 7.96212 27.6924 9.53135 29.2616C10.8237 30.5539 11.4698 32.2155 11.4698 33.9693C11.4698 38.4001 15.0698 42.0924 19.5929 42.0924C21.3467 42.0924 23.1006 42.8308 24.3006 44.0308C25.8698 45.6001 27.9006 46.4308 30.0237 46.4308C32.0544 46.4308 34.1775 45.6001 35.7467 44.0308C37.1313 42.7385 38.7929 42.0924 40.5467 42.0924ZM25.4083 43.0155C23.839 41.4462 21.8083 40.6155 19.6852 40.6155C15.9929 40.6155 12.9467 37.5693 12.9467 33.877C12.9467 31.7539 12.116 29.7232 10.5467 28.1539C9.25443 26.8616 8.60827 25.2001 8.60827 23.4462C8.60827 21.6924 9.34673 19.9385 10.5467 18.7385C12.116 17.1693 12.9467 15.1385 12.9467 13.0155C12.9467 9.32315 15.9929 6.277 19.6852 6.277C21.8083 6.277 23.839 5.44623 25.4083 3.877C26.7006 2.76931 28.3621 2.12315 30.116 2.12315C31.8698 2.12315 33.5313 2.76931 34.8237 4.06161C36.3929 5.53854 38.4237 6.36931 40.5467 6.36931C44.239 6.36931 47.1929 9.41546 47.1929 13.1078C47.1929 15.2308 48.0237 17.2616 49.5929 18.8308C52.1775 21.4155 52.1775 25.6616 49.5929 28.3385C48.0237 29.9078 47.1929 31.9385 47.1929 34.0616C47.1929 37.7539 44.1467 40.8001 40.4544 40.8001C38.3314 40.8001 36.3006 41.6308 34.7313 43.2001C32.239 45.6924 27.9929 45.6924 25.4083 43.0155Z" fill="black" fill-opacity="0.8"/>
<path d="M46.4545 23.5384C46.4545 23.1692 46.1776 22.8 45.7161 22.8C45.3468 22.8 44.9776 23.0769 44.9776 23.5384C44.9776 31.7538 38.2391 38.4923 29.9314 38.5846C21.7161 38.5846 14.9776 31.8461 14.8853 23.5384C14.8853 21.2307 15.3468 19.1076 16.3622 17.0769C19.0391 11.9076 24.393 8.58457 30.1161 8.58457C36.393 8.58457 42.1161 12.5538 44.2391 18.5538C44.3314 18.923 44.793 19.1076 45.1622 19.0153C45.3468 18.923 45.4391 18.8307 45.5314 18.6461C45.6238 18.4615 45.6238 18.2769 45.5314 18.0923C43.2237 11.6307 37.0391 7.19995 30.1161 7.19995C26.9776 7.19995 23.9314 8.12303 21.2545 9.78457C18.6699 11.4461 16.6391 13.7538 15.3468 16.523C14.3314 18.7384 13.7776 21.1384 13.7776 23.6307C13.7776 32.6769 21.1622 40.0615 30.2084 40.0615C39.2545 40.0615 46.4545 32.5846 46.4545 23.5384Z" fill="black" fill-opacity="0.8"/>
<path d="M41.285 19.9386C41.1927 19.6617 41.0081 19.4771 40.7312 19.4771L33.8081 18.4617L30.762 12.1848C30.4851 11.7232 29.7466 11.7232 29.562 12.1848L26.4235 18.4617L19.5927 19.4771C19.3158 19.4771 19.1312 19.6617 19.0389 19.9386C18.9466 20.2155 19.0389 20.4925 19.2235 20.6771L24.2081 25.5694L22.9158 32.3078C22.9158 32.5848 23.0081 32.8617 23.1927 32.954C23.3774 33.1386 23.6543 33.1386 23.9312 33.0463L30.1158 29.8155L36.3004 33.0463C36.3927 33.1386 36.4851 33.1386 36.5774 33.1386C36.762 33.1386 36.8543 33.1386 36.9466 33.0463C37.1312 32.8617 37.2235 32.5848 37.2235 32.4002L36.0235 25.5694L41.0081 20.6771C41.285 20.4925 41.285 20.2155 41.285 19.9386ZM34.8235 24.7386C34.6389 24.9232 34.5466 25.1079 34.6389 25.3848L35.6543 31.2002L30.3927 28.4309C30.3004 28.3386 30.2081 28.3386 30.1158 28.3386C30.0235 28.3386 29.9312 28.3386 29.8389 28.4309L24.5774 31.2002L25.5927 25.3848C25.5927 25.2002 25.5927 24.9232 25.4081 24.7386L21.162 20.5848L26.9774 19.754C27.162 19.754 27.4389 19.5694 27.5312 19.3848L30.1158 14.1232L32.7004 19.3848C32.7927 19.5694 32.9774 19.754 33.2543 19.754L39.0697 20.5848L34.8235 24.7386Z" fill="black" fill-opacity="0.8"/>
<path d="M25.5005 47.6308C25.1313 47.4462 24.7621 47.6308 24.5775 48.0001L20.4236 56.8616L17.839 49.6616C17.7467 49.477 17.6544 49.3847 17.4698 49.2924C17.2851 49.2001 17.1005 49.2001 16.9159 49.2924L9.71591 51.877L13.6851 43.2924C13.8698 42.9231 13.6851 42.5539 13.3159 42.3693C12.9467 42.1847 12.5775 42.3693 12.3928 42.7385L7.68514 52.8924C7.59284 53.1693 7.59284 53.4462 7.77745 53.6308C7.96207 53.8155 8.23899 53.9078 8.51591 53.8155L16.639 50.8616L19.5928 58.9847C19.6851 59.2616 19.9621 59.4462 20.239 59.4462C20.5159 59.4462 20.7928 59.2616 20.8851 59.077L25.6851 48.7385C26.0544 48.1847 25.8698 47.8155 25.5005 47.6308Z" fill="black" fill-opacity="0.8"/>
<path d="M50.9773 53.5386C51.1619 53.3539 51.2542 53.077 51.0696 52.8001L46.6389 43.3847C46.4542 43.0155 46.085 42.9232 45.7158 43.0155C45.3465 43.2001 45.2542 43.5693 45.3465 43.9385L49.0388 51.877L41.8389 49.2924C41.6542 49.2001 41.4696 49.2001 41.285 49.2924C41.1004 49.3847 41.0081 49.477 40.9158 49.6616L38.4235 56.7693L34.5465 48.3693C34.3619 48.0001 33.9927 47.9078 33.6235 48.0001C33.2542 48.1847 33.1619 48.5539 33.2542 48.9232L37.8696 58.8001C37.9619 59.077 38.2389 59.1693 38.5158 59.1693C38.7927 59.1693 39.0696 58.9847 39.1619 58.7078L42.1158 50.5847L50.2388 53.5386C50.5158 53.8155 50.7927 53.7232 50.9773 53.5386Z" fill="black" fill-opacity="0.8"/>
</svg>

<svg width="60" height="60" fill="none" xmlns="http://www.w3.org/2000/svg"><path d="M40.547 42.092c4.43 0 8.03-3.6 8.03-8.123 0-1.754.739-3.507 1.939-4.707 3.138-3.139 3.138-8.308 0-11.447-1.292-1.292-1.938-2.953-1.938-4.707 0-4.431-3.6-8.123-8.124-8.123-1.753 0-3.507-.739-4.707-1.939-3.139-3.138-8.308-3.138-11.446 0-1.293 1.293-2.954 1.939-4.708 1.939-4.43 0-8.123 3.6-8.123 8.123 0 1.754-.739 3.508-1.939 4.707-1.569 1.57-2.4 3.508-2.4 5.723 0 2.124.831 4.154 2.4 5.724 1.293 1.292 1.939 2.953 1.939 4.707 0 4.431 3.6 8.123 8.123 8.123 1.754 0 3.508.739 4.708 1.939 1.569 1.57 3.6 2.4 5.723 2.4 2.03 0 4.154-.83 5.723-2.4 1.384-1.292 3.046-1.939 4.8-1.939zm-15.139.924c-1.569-1.57-3.6-2.4-5.723-2.4-3.692 0-6.738-3.047-6.738-6.739 0-2.123-.831-4.154-2.4-5.723-1.293-1.292-1.939-2.954-1.939-4.708s.739-3.508 1.939-4.708c1.569-1.569 2.4-3.6 2.4-5.723 0-3.692 3.046-6.738 6.738-6.738 2.123 0 4.154-.83 5.723-2.4a7.24 7.24 0 014.708-1.754c1.754 0 3.415.646 4.708 1.939 1.569 1.477 3.6 2.307 5.723 2.307 3.692 0 6.646 3.046 6.646 6.739 0 2.123.83 4.154 2.4 5.723 2.584 2.585 2.584 6.83 0 9.508-1.57 1.569-2.4 3.6-2.4 5.723 0 3.692-3.046 6.738-6.739 6.738-2.123 0-4.153.83-5.723 2.4-2.492 2.492-6.738 2.492-9.323-.184z" fill="#000" fill-opacity=".8"/><path d="M46.455 23.538a.728.728 0 00-.739-.738.728.728 0 00-.738.738c0 8.216-6.739 14.954-15.047 15.047-8.215 0-14.953-6.739-15.046-15.047 0-2.307.462-4.43 1.477-6.461 2.677-5.17 8.031-8.492 13.754-8.492 6.277 0 12 3.969 14.123 9.969.092.369.554.554.923.461a.72.72 0 00.37-.369.588.588 0 000-.554C43.223 11.631 37.038 7.2 30.115 7.2c-3.138 0-6.185.923-8.861 2.585a16.048 16.048 0 00-5.908 6.738 16.997 16.997 0 00-1.57 7.108c0 9.046 7.385 16.43 16.431 16.43 9.047 0 16.247-7.476 16.247-16.523z" fill="#000" fill-opacity=".8"/><path d="M41.285 19.939c-.092-.277-.277-.462-.554-.462l-6.923-1.015-3.046-6.277c-.277-.462-1.015-.462-1.2 0l-3.139 6.277-6.83 1.015c-.277 0-.462.185-.554.462a.718.718 0 00.184.738l4.985 4.892-1.292 6.739c0 .277.092.554.277.646.184.185.461.185.738.092l6.185-3.23 6.184 3.23c.093.093.185.093.277.093.185 0 .277 0 .37-.093a.997.997 0 00.276-.646l-1.2-6.83 4.985-4.893c.277-.184.277-.462.277-.738zm-6.461 4.8c-.185.184-.277.369-.185.646l1.015 5.815-5.261-2.77c-.093-.091-.185-.091-.277-.091-.093 0-.185 0-.277.092l-5.262 2.77 1.016-5.816c0-.185 0-.462-.185-.646l-4.246-4.154 5.815-.831c.185 0 .462-.185.554-.37l2.585-5.26 2.584 5.26c.093.185.277.37.554.37l5.816.83-4.246 4.155zM25.5 47.63c-.369-.184-.738 0-.922.37l-4.154 8.862-2.585-7.2a.72.72 0 00-.37-.37.589.589 0 00-.553 0l-7.2 2.585 3.97-8.585c.184-.369 0-.738-.37-.923-.37-.184-.739 0-.923.37L7.685 52.892c-.092.277-.092.554.092.739a.718.718 0 00.739.184l8.123-2.953 2.954 8.123c.092.277.37.461.646.461.277 0 .554-.184.646-.369l4.8-10.338c.37-.554.185-.923-.184-1.108zm25.477 5.909c.185-.185.277-.462.093-.739l-4.431-9.415c-.185-.37-.554-.462-.923-.37-.37.185-.462.554-.37.923l3.693 7.939-7.2-2.585a.589.589 0 00-.554 0 .72.72 0 00-.37.37l-2.492 7.107-3.877-8.4c-.184-.369-.553-.461-.922-.369-.37.185-.462.554-.37.923L37.87 58.8c.092.277.369.37.646.37a.694.694 0 00.646-.462l2.954-8.123 8.123 2.954c.277.276.554.184.738 0z" fill="#000" fill-opacity=".8"/></svg>
